X: 84
T:Torn Jacket, The
M:C|
L:1/8
C:Connie O'Connell
R:Reel
K:D
F3A d2ed|cAAB cde2|FEFA dfed|cAGE EDDE|!
FEFA d2ed|cAAB cdec|dcde f2ed|cAGE EDD2:|!
|:FAdf a2fa|gfga gfed|cAAB cdef|gfed cAGE|!
FAdf a2fa|gfga gfef|g2ba gfed|cAGE EDD2:|]!
